X: 86
T: Ge qingcai
L: 1/16
M: 2/4
K: G
d2 e d B d B A [I:setbarnb 1]| 
d2 e d B d B A | 
G2> E2 d e d B | 
A B A EG4 | 
G G2 A d e d A | 
G A B e d B A G | 
A E2 D G A d A | 
G F E B,D4 | 
d A d e d B A G | 
A E2 D G A d A | 
G F E B,D4 |]

@@@ Tune index: 8960
